tools/download-figma-icons/icons/outlined-medium/together.svg

<svg width="25" height="24" viewBox="0 0 25 24" fill="none" xmlns="http://www.w3.org/2000/svg">
<path fill-rule="evenodd" clip-rule="evenodd" d="M11.1582 5.92861C10.4488 5.92861 9.83677 6.40185 9.66953 7.07834L9.32303 8.48681H14.7147L14.3659 7.07759C14.1979 6.4011 13.5859 5.92861 12.8765 5.92861H11.1582ZM13.4959 2.96468C13.4959 2.15694 12.8397 1.50071 12.0319 1.50071C11.225 1.50071 10.568 2.15694 10.568 2.96468C10.568 3.77166 11.225 4.4279 12.0319 4.4279C12.8397 4.4279 13.4959 3.77166 13.4959 2.96468ZM14.9652 9.9868H9.07252C8.66903 9.9868 8.29554 9.8053 8.04654 9.48731C7.7983 9.17006 7.71055 8.76357 7.8073 8.37283L8.21379 6.71986C8.42229 5.87088 8.98102 5.1839 9.71601 4.79015C9.31627 4.28466 9.06802 3.65693 9.06802 2.96469C9.06802 1.32972 10.3977 0 12.032 0C13.6662 0 14.9959 1.32972 14.9959 2.96469C14.9959 3.66068 14.7447 4.29366 14.3404 4.7999C15.0634 5.19439 15.6139 5.87613 15.8216 6.71761L16.2304 8.37058C16.3271 8.76357 16.2394 9.17081 15.9904 9.48806C15.7421 9.8053 15.3679 9.9868 14.9652 9.9868ZM17.42 21.0914L17.0735 22.4999H22.4644L22.1164 21.0907C21.9491 20.4142 21.3371 19.9417 20.6277 19.9417H18.9087C18.1992 19.9417 17.5872 20.4149 17.42 21.0914ZM21.2464 16.977C21.2464 16.17 20.5894 15.5138 19.7824 15.5138C18.9754 15.5138 18.3192 16.17 18.3192 16.977C18.3192 17.784 18.9754 18.441 19.7824 18.441C20.5894 18.441 21.2464 17.784 21.2464 16.977ZM23.5721 20.7314L23.9808 22.3837C24.0776 22.7751 23.9913 23.1816 23.7423 23.4996C23.4933 23.8176 23.1191 23.9999 22.7149 23.9999H16.823C16.4202 23.9999 16.046 23.8176 15.797 23.5004C15.5487 23.1831 15.461 22.7766 15.5577 22.3859L15.9642 20.7337C16.1727 19.884 16.7315 19.1962 17.4657 18.8025C17.0675 18.2977 16.8192 17.6693 16.8192 16.977C16.8192 15.3428 18.1489 14.0138 19.7824 14.0138C21.4174 14.0138 22.7463 15.3428 22.7463 16.977C22.7463 17.673 22.4951 18.3067 22.0909 18.813C22.8153 19.2075 23.3651 19.8907 23.5721 20.7314ZM1.55447 22.4999L1.90097 21.0914C2.06821 20.4149 2.6802 19.9417 3.38969 19.9417H5.10865C5.81814 19.9417 6.43012 20.4142 6.59737 21.0907L6.94536 22.4999H1.55447ZM4.2634 15.5138C5.07039 15.5138 5.72737 16.17 5.72737 16.977C5.72737 17.784 5.07039 18.441 4.2634 18.441C3.45642 18.441 2.80018 17.784 2.80018 16.977C2.80018 16.17 3.45642 15.5138 4.2634 15.5138ZM8.05308 20.7314C7.84608 19.8907 7.29634 19.2075 6.57186 18.813C6.9761 18.3067 7.22734 17.673 7.22734 16.977C7.22734 15.3428 5.89837 14.0138 4.2634 14.0138C2.62994 14.0138 1.30021 15.3428 1.30021 16.977C1.30021 17.6693 1.54846 18.2977 1.94745 18.8025C1.21246 19.1962 0.654476 19.884 0.44523 20.7337L0.0387385 22.3859C-0.0580096 22.7766 0.0297387 23.1831 0.277984 23.5004C0.526979 23.8176 0.901221 23.9999 1.30396 23.9999H7.19584C7.60009 23.9999 7.97433 23.8176 8.22332 23.4996C8.47232 23.1816 8.55857 22.7751 8.46182 22.3837L8.05308 20.7314ZM12.7357 14.7802L15.1296 16.1624C15.4889 16.3694 15.6119 16.8284 15.4041 17.1869C15.2654 17.4276 15.0134 17.5619 14.7539 17.5619C14.6264 17.5619 14.4974 17.5296 14.3796 17.4614L11.9857 16.0799L9.591 17.4614C9.47325 17.5296 9.34425 17.5619 9.21675 17.5619C8.95801 17.5619 8.70601 17.4276 8.56652 17.1869C8.35952 16.8284 8.48252 16.3694 8.84101 16.1624L11.2357 14.7802V12.0157C11.2357 11.601 11.571 11.2657 11.9857 11.2657C12.3997 11.2657 12.7357 11.601 12.7357 12.0157V14.7802Z" fill="black"/>
</svg>

<svg width="25" height="24" viewBox="0 0 25 24" fill="none" xmlns="http://www.w3.org/2000/svg"><path fill-rule="evenodd" clip-rule="evenodd" d="M11.158 5.929c-.71 0-1.321.473-1.488 1.15l-.347 1.408h5.392l-.35-1.41a1.524 1.524 0 0 0-1.489-1.148h-1.718Zm2.338-2.964a1.465 1.465 0 0 0-2.928 0 1.465 1.465 0 0 0 2.928 0Zm1.47 7.022H9.072c-.404 0-.777-.182-1.026-.5a1.294 1.294 0 0 1-.24-1.114l.407-1.653a2.998 2.998 0 0 1 1.502-1.93 2.93 2.93 0 0 1-.648-1.825A2.968 2.968 0 0 1 12.032 0a2.968 2.968 0 0 1 2.964 2.965A2.93 2.93 0 0 1 14.34 4.8a3.001 3.001 0 0 1 1.482 1.918l.408 1.653c.097.393.01.8-.24 1.117a1.294 1.294 0 0 1-1.025.499ZM17.42 21.09l-.347 1.409h5.391l-.348-1.41a1.522 1.522 0 0 0-1.488-1.148h-1.72c-.709 0-1.32.473-1.488 1.15Zm3.826-4.114a1.465 1.465 0 1 0-1.464 1.464c.807 0 1.464-.657 1.464-1.464Zm2.326 3.754.409 1.653c.097.391.01.798-.239 1.116-.249.318-.623.5-1.027.5h-5.892c-.403 0-.777-.182-1.026-.5a1.294 1.294 0 0 1-.24-1.114l.407-1.652a3 3 0 0 1 1.502-1.932 2.936 2.936 0 0 1-.647-1.825 2.967 2.967 0 0 1 2.963-2.963 2.966 2.966 0 0 1 2.964 2.963c0 .696-.25 1.33-.655 1.836a2.998 2.998 0 0 1 1.481 1.918ZM1.554 22.5l.347-1.409c.167-.676.78-1.15 1.489-1.15h1.719c.71 0 1.321.473 1.488 1.15l.348 1.409h-5.39Zm2.71-6.986c.806 0 1.463.656 1.463 1.463s-.657 1.464-1.464 1.464a1.465 1.465 0 0 1 0-2.927Zm3.79 5.217a2.997 2.997 0 0 0-1.482-1.918c.404-.506.655-1.14.655-1.836a2.966 2.966 0 0 0-2.964-2.963A2.967 2.967 0 0 0 1.3 16.977c0 .692.248 1.32.647 1.825a3.001 3.001 0 0 0-1.502 1.932L.04 22.386c-.097.39-.01.797.239 1.114.249.318.623.5 1.026.5h5.892c.404 0 .778-.182 1.027-.5.25-.318.336-.725.239-1.116l-.409-1.653Zm4.682-5.95 2.394 1.381a.749.749 0 1 1-.75 1.3l-2.394-1.382-2.396 1.38a.75.75 0 0 1-.75-1.299l2.395-1.382v-2.764a.75.75 0 1 1 1.5 0v2.764Z" fill="currentColor"/></svg>
